X: 54
T: Skomager-Skotsk
B:[[Notböcker/Melodier til gamle danske Almuedanse for Violin solo]]
O:Danmark
Z:Søren Bak Vestergaard
M: 2/4
L: 1/8
K: D
(df) Ad|cA/c/ e2|(ce) Ac|dA/d/ f2|(df) Ad|cA/c/ e2|(ce) Ac|d2 d2:|\
|:(Ac) eg|(fA) df|(eA) ce|df a2|(Ac) eg|(fA) df|(eA) ce|!upbow!d2!upbow!d2:|

